X: 115
T: Forstälds Polska
R: Slängpolska
S: efter Anders Larsson i Backa
B: Anders Larssons notbok
B: http://www.smus.se/earkiv/fmk/browselarge.php?lang=sw&katalogid=M+189&bildnr=00024
Z: Nils L
O: Östra Ryd, Östergötland
M: 3/4
L: 1/16
K: C
[a2D2G,2][g2D2G,2][f2D2G,2] Ac fa gbge f2 | dBdf eceg fefa | gfgb agfe dcBA |
[a2D2G,2][g2D2G,2][f2D2G,2] Acfa gbge f2  | dBdf eceg fefa | gbge g4 f4 :|:
c2eg b2ge c2eg | BABd g2ec agfe | c2eg b2ge c2eg | BABd g2ec agfe :|

